public/assets/icon.svg

<?xml version="1.0" encoding="UTF-8" standalone="no"?>
<!-- https://www.iconfinder.com/icons/7150134/water_drink_drop_blue_icon -->

<svg
   fill="none"
   height="128"
   viewBox="0 0 127.99999 128"
   width="128"
   version="1.1"
   id="svg59"
   sodipodi:docname="icon.svg"
   inkscape:version="1.2.1 (9c6d41e410, 2022-07-14, custom)"
   xmlns:inkscape="http://www.inkscape.org/namespaces/inkscape"
   xmlns:sodipodi="http://sodipodi.sourceforge.net/DTD/sodipodi-0.dtd"
   xmlns="http://www.w3.org/2000/svg"
   xmlns:svg="http://www.w3.org/2000/svg">
  <sodipodi:namedview
     id="namedview61"
     pagecolor="#ffffff"
     bordercolor="#111111"
     borderopacity="1"
     inkscape:showpageshadow="0"
     inkscape:pageopacity="0"
     inkscape:pagecheckerboard="1"
     inkscape:deskcolor="#d1d1d1"
     showgrid="false"
     inkscape:zoom="6.5984848"
     inkscape:cx="70.925374"
     inkscape:cy="57.361654"
     inkscape:window-width="1920"
     inkscape:window-height="1052"
     inkscape:window-x="0"
     inkscape:window-y="28"
     inkscape:window-maximized="1"
     inkscape:current-layer="svg59" />
  <g
     filter="url(#filter0_dd)"
     id="g10"
     transform="translate(-2,-4)">
    <path
       d="M 26.3153,81.929 49.9191,35.2807 c 0.864,-1.7076 3.2983,-1.7076 4.1623,0 L 77.6841,81.929 C 84.1051,94.6193 77.6839,120 52.0003,120 26.316,120 19.8956,94.6193 26.3153,81.929 Z"
       fill="url(#paint0_linear)"
       id="path2"
       style="fill:url(#paint0_linear)" />
    <path
       d="m 36.9923,71.9546 9.9352,-19.3092 c 0.4428,-0.8605 1.7025,-0.8605 2.1452,0 l 9.9348,19.3092 C 61.7593,77.3031 59.0074,88 48.0001,88 36.9926,88 34.241,77.3031 36.9923,71.9546 Z"
       fill="url(#paint1_linear)"
       id="path4"
       style="fill:url(#paint1_linear)" />
    <path
       d="M 77.1577,30.9725 88.2341,9.09123 c 0.7366,-1.45499 2.7955,-1.45497 3.532,3e-5 L 102.842,30.9725 C 106.053,37.315 102.842,50 90.0001,50 77.158,50 73.9478,37.315 77.1577,30.9725 Z"
       fill="url(#paint2_linear)"
       id="path6"
       style="fill:url(#paint2_linear)" />
    <path
       d="m 83.4134,25.1429 3.6928,-7.3611 c 0.369,-0.7355 1.4187,-0.7355 1.7877,0 l 3.6925,7.3611 c 1.1467,2.2857 0,6.8571 -4.5863,6.8571 -4.5865,0 -5.733,-4.5714 -4.5867,-6.8571 z"
       fill="url(#paint3_linear)"
       id="path8"
       style="fill:url(#paint3_linear)" />
  </g>
  <defs
     id="defs57">
    <filter
       color-interpolation-filters="sRGB"
       filterUnits="userSpaceOnUse"
       height="144"
       id="filter0_dd"
       width="144"
       x="-6"
       y="-4">
      <feFlood
         flood-opacity="0"
         result="BackgroundImageFix"
         id="feFlood12" />
      <feColorMatrix
         in="SourceAlpha"
         type="matrix"
         values="0 0 0 0 0 0 0 0 0 0 0 0 0 0 0 0 0 0 127 0"
         id="feColorMatrix14" />
      <feOffset
         dx="2"
         dy="4"
         id="feOffset16" />
      <feGaussianBlur
         stdDeviation="4"
         id="feGaussianBlur18" />
      <feColorMatrix
         type="matrix"
         values="0 0 0 0 0 0 0 0 0 0 0 0 0 0 0 0 0 0 0.2 0"
         id="feColorMatrix20" />
      <feBlend
         in2="BackgroundImageFix"
         mode="normal"
         result="effect1_dropShadow"
         id="feBlend22" />
      <feColorMatrix
         in="SourceAlpha"
         type="matrix"
         values="0 0 0 0 0 0 0 0 0 0 0 0 0 0 0 0 0 0 127 0"
         id="feColorMatrix24" />
      <feOffset
         dy="2"
         id="feOffset26" />
      <feGaussianBlur
         stdDeviation="2"
         id="feGaussianBlur28" />
      <feColorMatrix
         type="matrix"
         values="0 0 0 0 0 0 0 0 0 0 0 0 0 0 0 0 0 0 0.2 0"
         id="feColorMatrix30" />
      <feBlend
         in2="effect1_dropShadow"
         mode="normal"
         result="effect2_dropShadow"
         id="feBlend32" />
      <feBlend
         in="SourceGraphic"
         in2="effect2_dropShadow"
         mode="normal"
         result="shape"
         id="feBlend34" />
    </filter>
    <linearGradient
       gradientUnits="userSpaceOnUse"
       id="paint0_linear"
       x1="34.499901"
       x2="95.220299"
       y1="31.1675"
       y2="87.458298">
      <stop
         stop-color="#0862CC"
         id="stop37" />
      <stop
         offset="0.773691"
         stop-color="#01D7F2"
         id="stop39" />
    </linearGradient>
    <linearGradient
       gradientUnits="userSpaceOnUse"
       id="paint1_linear"
       x1="40.5"
       x2="66.120003"
       y1="50.560699"
       y2="74.712502">
      <stop
         stop-color="#019BF2"
         id="stop42" />
      <stop
         offset="1"
         stop-color="#6AEEFF"
         id="stop44" />
    </linearGradient>
    <linearGradient
       gradientUnits="userSpaceOnUse"
       id="paint2_linear"
       x1="81.25"
       x2="111.598"
       y1="5.6024899"
       y2="33.748798">
      <stop
         stop-color="#0862CC"
         id="stop47" />
      <stop
         offset="0.773691"
         stop-color="#01D7F2"
         id="stop49" />
    </linearGradient>
    <linearGradient
       gradientUnits="userSpaceOnUse"
       id="paint3_linear"
       x1="84.875"
       x2="95.8041"
       y1="16"
       y2="26.045">
      <stop
         stop-color="#019BF2"
         id="stop52" />
      <stop
         offset="1"
         stop-color="#6AEEFF"
         id="stop54" />
    </linearGradient>
  </defs>
</svg>

<?xml version="1.0" ?>
<!-- https://www.iconfinder.com/icons/7150134/water_drink_drop_blue_icon -->
<svg fill="none" height="132" viewBox="0 0 128 132" width="128" xmlns="http://www.w3.org/2000/svg"><g filter="url(#filter0_dd)"><path d="M26.3153 81.929L49.9191 35.2807C50.7831 33.5731 53.2174 33.5731 54.0814 35.2807L77.6841 81.929C84.1051 94.6193 77.6839 120 52.0003 120C26.316 120 19.8956 94.6193 26.3153 81.929Z" fill="url(#paint0_linear)"/><path d="M36.9923 71.9546L46.9275 52.6454C47.3703 51.7849 48.63 51.7849 49.0727 52.6454L59.0075 71.9546C61.7593 77.3031 59.0074 88 48.0001 88C36.9926 88 34.241 77.3031 36.9923 71.9546Z" fill="url(#paint1_linear)"/><path d="M77.1577 30.9725L88.2341 9.09123C88.9707 7.63624 91.0296 7.63626 91.7661 9.09126L102.842 30.9725C106.053 37.315 102.842 50 90.0001 50C77.158 50 73.9478 37.315 77.1577 30.9725Z" fill="url(#paint2_linear)"/><path d="M83.4134 25.1429L87.1062 17.7818C87.4752 17.0463 88.5249 17.0463 88.8939 17.7818L92.5864 25.1429C93.7331 27.4286 92.5864 32 88.0001 32C83.4136 32 82.2671 27.4286 83.4134 25.1429Z" fill="url(#paint3_linear)"/></g><defs><filter color-interpolation-filters="sRGB" filterUnits="userSpaceOnUse" height="144" id="filter0_dd" width="144" x="-6" y="-4"><feFlood flood-opacity="0" result="BackgroundImageFix"/><feColorMatrix in="SourceAlpha" type="matrix" values="0 0 0 0 0 0 0 0 0 0 0 0 0 0 0 0 0 0 127 0"/><feOffset dx="2" dy="4"/><feGaussianBlur stdDeviation="4"/><feColorMatrix type="matrix" values="0 0 0 0 0 0 0 0 0 0 0 0 0 0 0 0 0 0 0.2 0"/><feBlend in2="BackgroundImageFix" mode="normal" result="effect1_dropShadow"/><feColorMatrix in="SourceAlpha" type="matrix" values="0 0 0 0 0 0 0 0 0 0 0 0 0 0 0 0 0 0 127 0"/><feOffset dy="2"/><feGaussianBlur stdDeviation="2"/><feColorMatrix type="matrix" values="0 0 0 0 0 0 0 0 0 0 0 0 0 0 0 0 0 0 0.2 0"/><feBlend in2="effect1_dropShadow" mode="normal" result="effect2_dropShadow"/><feBlend in="SourceGraphic" in2="effect2_dropShadow" mode="normal" result="shape"/></filter><linearGradient gradientUnits="userSpaceOnUse" id="paint0_linear" x1="34.4999" x2="95.2203" y1="31.1675" y2="87.4583"><stop stop-color="#0862CC"/><stop offset="0.773691" stop-color="#01D7F2"/></linearGradient><linearGradient gradientUnits="userSpaceOnUse" id="paint1_linear" x1="40.5" x2="66.12" y1="50.5607" y2="74.7125"><stop stop-color="#019BF2"/><stop offset="1" stop-color="#6AEEFF"/></linearGradient><linearGradient gradientUnits="userSpaceOnUse" id="paint2_linear" x1="81.25" x2="111.598" y1="5.60249" y2="33.7488"><stop stop-color="#0862CC"/><stop offset="0.773691" stop-color="#01D7F2"/></linearGradient><linearGradient gradientUnits="userSpaceOnUse" id="paint3_linear" x1="84.875" x2="95.8041" y1="16" y2="26.045"><stop stop-color="#019BF2"/><stop offset="1" stop-color="#6AEEFF"/></linearGradient></defs></svg>
